img/service/button-5.svg

<svg width="52" height="52" viewBox="0 0 52 52" fill="none" xmlns="http://www.w3.org/2000/svg">
<rect width="52" height="52" rx="12" fill="#F2F2F7"/>
<g clip-path="url(#clip0_2123_773)">
<path d="M36.5938 19.6719V18.2656H27.9884C27.7762 17.6673 27.3014 17.1925 26.7031 16.9803V14H25.2969V16.9803C24.6986 17.1925 24.2238 17.6673 24.0116 18.2656H15.4062V19.6719H17.1641L14 27.2656V27.4062C14 29.3448 15.5771 30.9219 17.5156 30.9219H18.9219C20.8604 30.9219 22.4375 29.3448 22.4375 27.4062V27.2656L19.2734 19.6719H24.0116C24.2238 20.2702 24.6986 20.745 25.2969 20.9572V31.0395C23.9015 31.3239 22.805 32.4376 22.5444 33.8413C20.9121 34.1444 19.6719 35.5781 19.6719 37.2969V38H32.3282V37.2969C32.3282 35.5781 31.088 34.1444 29.4557 33.8412C29.195 32.4375 28.0985 31.3238 26.7031 31.0395V20.9572C27.3014 20.745 27.7762 20.2702 27.9884 19.6719H32.7266L29.5625 27.2656V27.4062C29.5625 29.3448 31.1396 30.9219 33.0781 30.9219H34.4844C36.4229 30.9219 38 29.3448 38 27.4062V27.2656L34.8359 19.6719H36.5938ZM18.2188 20.7969L20.6797 26.7031H15.7578L18.2188 20.7969ZM18.9219 29.5156H17.5156C16.599 29.5156 15.8174 28.9277 15.5272 28.1089H20.9103C20.6201 28.9277 19.8385 29.5156 18.9219 29.5156ZM33.7812 20.7969L36.2422 26.7031H31.3203L33.7812 20.7969ZM34.4844 29.5156H33.0781C32.1615 29.5156 31.3799 28.9277 31.0897 28.1089H36.4728C36.1826 28.9277 35.401 29.5156 34.4844 29.5156ZM30.8014 36.5938H21.1986C21.4888 35.7753 22.2708 35.1875 23.1875 35.1875H28.8125C29.7292 35.1875 30.5112 35.7753 30.8014 36.5938ZM27.9884 33.7812H24.0116C24.3018 32.9629 25.0834 32.375 26 32.375C26.9166 32.375 27.6982 32.9629 27.9884 33.7812ZM26 19.6719C25.6123 19.6719 25.2969 19.3565 25.2969 18.9688C25.2969 18.581 25.6123 18.2656 26 18.2656C26.3877 18.2656 26.7031 18.581 26.7031 18.9688C26.7031 19.3565 26.3877 19.6719 26 19.6719Z" fill="#0F172A"/>
</g>
<defs>
<clipPath id="clip0_2123_773">
<rect width="24" height="24" fill="white" transform="translate(14 14)"/>
</clipPath>
</defs>
</svg>

<svg xmlns="http://www.w3.org/2000/svg" width="52" height="52" fill="none"><rect width="52" height="52" fill="#F2F2F7" rx="12"/><g clip-path="url(#a)"><path fill="#0F172A" d="M36.594 19.672v-1.406h-8.606a2.12 2.12 0 0 0-1.285-1.286V14h-1.406v2.98a2.12 2.12 0 0 0-1.285 1.286h-8.606v1.406h1.758L14 27.266v.14a3.52 3.52 0 0 0 3.516 3.516h1.406a3.52 3.52 0 0 0 3.515-3.516v-.14l-3.164-7.594h4.739a2.12 2.12 0 0 0 1.285 1.285V31.04a3.525 3.525 0 0 0-2.753 2.802 3.52 3.52 0 0 0-2.872 3.456V38h12.656v-.703a3.52 3.52 0 0 0-2.872-3.456 3.525 3.525 0 0 0-2.753-2.802V20.957a2.12 2.12 0 0 0 1.285-1.285h4.739l-3.164 7.594v.14a3.52 3.52 0 0 0 3.515 3.516h1.406A3.52 3.52 0 0 0 38 27.406v-.14l-3.164-7.594h1.758Zm-18.375 1.125 2.46 5.906h-4.921l2.46-5.906Zm.703 8.719h-1.406a2.112 2.112 0 0 1-1.989-1.407h5.383a2.112 2.112 0 0 1-1.988 1.407Zm14.86-8.72 2.46 5.907H31.32l2.461-5.906Zm.702 8.72h-1.406a2.112 2.112 0 0 1-1.988-1.407h5.383a2.112 2.112 0 0 1-1.989 1.407Zm-3.683 7.078H21.2a2.113 2.113 0 0 1 1.988-1.407h5.625c.917 0 1.7.588 1.99 1.407Zm-2.813-2.813h-3.976A2.113 2.113 0 0 1 26 32.375c.917 0 1.698.588 1.988 1.406ZM26 19.671a.704.704 0 1 1 .002-1.407.704.704 0 0 1-.002 1.408Z"/></g><defs><clipPath id="a"><path fill="#fff" d="M14 14h24v24H14z"/></clipPath></defs></svg>
